src/extras-openmoji/ui-element/E245.svg

<svg id="emoji" viewBox="0 0 72 72" xmlns="http://www.w3.org/2000/svg">
  <g id="grid">
    <path fill="#b3b3b3" d="M68,4V68H4V4H68m4-4H0V72H72V0Z"/>
    <path fill="none" stroke="#00a5ff" stroke-miterlimit="10" stroke-width="0.1" d="M12.923,10.9583H59.0769A1.9231,1.9231,0,0,1,61,12.8814V59.0352a1.9231,1.9231,0,0,1-1.9231,1.9231H12.9231A1.9231,1.9231,0,0,1,11,59.0352V12.8813A1.923,1.923,0,0,1,12.923,10.9583Z"/>
    <rect x="16" y="4" rx="2.2537" width="40" height="64" fill="none" stroke="#00a5ff" stroke-miterlimit="10" stroke-width="0.1"/>
    <rect x="16" y="4" rx="2.2537" width="40" height="64" transform="translate(72) rotate(90)" fill="none" stroke="#00a5ff" stroke-miterlimit="10" stroke-width="0.1"/>
    <circle cx="36" cy="36" r="29" fill="none" stroke="#00a5ff" stroke-miterlimit="10" stroke-width="0.1"/>
  </g>
  <g id="color">
    <path fill="#d0cfce" stroke="none" stroke-linecap="round" stroke-linejoin="round" stroke-miterlimit="10" stroke-width="2" d="M20.9453,45.9794h30.0406c5.5116,0,9.9797-4.4681,9.9797-9.9797v0c0-5.5116-4.4681-9.9797-9.9797-9.9797H20.9453 c-5.5116,0-9.9797,4.4681-9.9797,9.9797v0C10.9656,41.5114,15.4336,45.9794,20.9453,45.9794z"/>
    <circle cx="50.9647" cy="36" r="10.0009" fill="#b1cc33" stroke="none" stroke-linecap="round" stroke-linejoin="round" stroke-miterlimit="10" stroke-width="2"/>
    <path fill="#5c9e31" stroke="none" stroke-linecap="round" stroke-linejoin="round" stroke-miterlimit="10" stroke-width="2" d="M43.9618,43.0717c3.9056,3.9056,10.2378,3.9056,14.1434,0s3.9056-10.2378,0-14.1434"/>
  </g>
  <g id="hair"/>
  <g id="skin"/>
  <g id="skin-shadow"/>
  <g id="line">
    <path fill="none" stroke="#000000" stroke-linecap="round" stroke-linejoin="round" stroke-miterlimit="10" stroke-width="2" d="M20.9453,45.9794h30.0406c5.5116,0,9.9797-4.4681,9.9797-9.9797v0c0-5.5116-4.4681-9.9797-9.9797-9.9797H20.9453 c-5.5116,0-9.9797,4.4681-9.9797,9.9797v0C10.9656,41.5114,15.4336,45.9794,20.9453,45.9794z"/>
    <circle cx="50.9647" cy="36" r="10.0009" fill="none" stroke="#000000" stroke-linecap="round" stroke-linejoin="round" stroke-miterlimit="10" stroke-width="2"/>
    <path fill="none" stroke="#000000" stroke-linecap="round" stroke-linejoin="round" stroke-miterlimit="10" stroke-width="2" d="M43.9618,43.0717c3.9056,3.9056,10.2378,3.9056,14.1434,0s3.9056-10.2378,0-14.1434"/>
  </g>
</svg>

<svg viewBox="0 0 72 72" xmlns="http://www.w3.org/2000/svg"><path fill="#b3b3b3" d="M68 4v64H4V4h64m4-4H0v72h72V0z"/><path fill="none" stroke="#00a5ff" stroke-miterlimit="10" stroke-width=".1" d="M12.923 10.958h46.154A1.923 1.923 0 0161 12.881v46.154a1.923 1.923 0 01-1.923 1.923H12.923A1.923 1.923 0 0111 59.035V12.881a1.923 1.923 0 011.923-1.923z"/><rect x="16" y="4" rx="2.254" width="40" height="64" fill="none" stroke="#00a5ff" stroke-miterlimit="10" stroke-width=".1"/><rect x="16" y="4" rx="2.254" width="40" height="64" transform="rotate(90 36 36)" fill="none" stroke="#00a5ff" stroke-miterlimit="10" stroke-width=".1"/><circle cx="36" cy="36" r="29" fill="none" stroke="#00a5ff" stroke-miterlimit="10" stroke-width=".1"/><g stroke-linecap="round" stroke-miterlimit="10" stroke-width="6" stroke="#fff" fill="none" stroke-linejoin="round"><path d="M20.945 45.98h30.04c5.513 0 9.98-4.469 9.98-9.98v0c0-5.512-4.468-9.98-9.98-9.98h-30.04c-5.511 0-9.98 4.468-9.98 9.98v0c0 5.511 4.469 9.98 9.98 9.98z"/><circle cx="50.965" cy="36" r="10.001"/><path d="M43.962 43.072c3.905 3.905 10.238 3.905 14.143 0s3.906-10.238 0-14.144"/></g><path fill="#d0cfce" d="M20.945 45.98h30.04c5.513 0 9.98-4.469 9.98-9.98 0-5.512-4.468-9.98-9.98-9.98h-30.04c-5.511 0-9.98 4.468-9.98 9.98 0 5.511 4.469 9.98 9.98 9.98z"/><circle cx="50.965" cy="36" r="10.001" fill="#b1cc33"/><path fill="#5c9e31" d="M43.962 43.072c3.905 3.905 10.238 3.905 14.143 0s3.906-10.238 0-14.144"/><g fill="none" stroke="#000" stroke-linecap="round" stroke-linejoin="round" stroke-miterlimit="10" stroke-width="2"><path d="M20.945 45.98h30.04c5.513 0 9.98-4.469 9.98-9.98v0c0-5.512-4.468-9.98-9.98-9.98h-30.04c-5.511 0-9.98 4.468-9.98 9.98v0c0 5.511 4.469 9.98 9.98 9.98z"/><circle cx="50.965" cy="36" r="10.001"/><path d="M43.962 43.072c3.905 3.905 10.238 3.905 14.143 0s3.906-10.238 0-14.144"/></g></svg>
